X: 18970
T: Inisheer
R: waltz
M: 3/4
K: Gmajor
D2|B3 A Bd|B3 A Bd|E3 B AB|D3 B AG|B3 A Bd|B3 A (3BdB|G3 B AD|G3 DGA|
B3 A Bd|B3 A Bd|e3 def|A3 BAG|B3 A Bd|B3 A (3BdB|G3 B AD|G3 ABd||
|:e3 f ed|B3 A Bd|gf ed Bd|e3 f gf|
e3 f ed|B3 A (3BdB|G3 B AD|G4:|

